public/images/telegram.svg

<svg width="32" height="32" viewBox="0 0 32 32" fill="none" xmlns="http://www.w3.org/2000/svg">
<g id="Group 81">
<rect id="Rectangle 139" x="0.75" y="0.75" width="30.5" height="30.5" rx="7.25" stroke="white" stroke-width="1.5"/>
<path id="Vector" d="M13.7716 22.0925L14.0512 17.8972L21.7212 11.034C22.0607 10.7265 21.6513 10.5777 21.2019 10.8455L11.7343 16.7864L7.63963 15.4971C6.76078 15.2491 6.7508 14.6441 7.83937 14.2077L23.7885 8.09824C24.5175 7.77094 25.2166 8.27676 24.937 9.38758L22.2205 22.0925C22.0308 22.9951 21.4815 23.2133 20.7225 22.7967L16.5879 19.7618L14.6005 21.676C14.3708 21.9041 14.1811 22.0925 13.7716 22.0925Z" fill="white"/>
</g>
</svg>

<svg xmlns="http://www.w3.org/2000/svg" width="32" height="32" fill="none"><rect width="30.5" height="30.5" x=".75" y=".75" stroke="#fff" stroke-width="1.5" rx="7.25"/><path fill="#fff" d="m13.772 22.093.28-4.196 7.67-6.863c.339-.308-.07-.456-.52-.189l-9.468 5.941-4.094-1.289c-.88-.248-.89-.853.2-1.29l15.948-6.109c.73-.327 1.429.179 1.149 1.29l-2.716 12.705c-.19.902-.74 1.12-1.498.704l-4.135-3.035-1.988 1.914c-.23.228-.419.417-.828.417Z"/></svg>
